X:99
T:Nonesuch
Z:Jack Campin, http://www.campin.me.uk/
F:Jack Campin's Nine-Note Tunebook
% last edit 03-02-2013
S:Playford, 1651
M:C|
L:1/4
Q:1/2=88
K:DDor
A|AF GA|FE/F/ DA|AF GA|F2 D
A|AF GA|FE/F/ DA|AF GA|D3
E|EC DE|FE/F/ DE|EC DE|F2 D
E|EC DE|FE/F/ DE|EC DE|D3|]

